icons/vector-beizer.svg

<svg width="24" height="24" viewBox="0 0 24 24" fill="none" xmlns="http://www.w3.org/2000/svg">
<path d="M7 5.5C7.657 5.5 8.307 5.668 8.913 5.995C9.54721 6.3451 10.1003 6.82525 10.536 7.404C11 8.007 11.368 8.724 11.619 9.513C11.871 10.301 12 11.146 12 12C12 13.724 12.527 15.377 13.464 16.596C14.402 17.816 15.674 18.5 17 18.5" stroke="white" stroke-width="2" stroke-linecap="round" stroke-linejoin="round"/>
<path d="M15 6C15.5523 6 16 5.55228 16 5C16 4.44772 15.5523 4 15 4C14.4477 4 14 4.44772 14 5C14 5.55228 14.4477 6 15 6Z" stroke="white" stroke-width="2" stroke-linecap="round" stroke-linejoin="round"/>
<path d="M9 20C9.55228 20 10 19.5523 10 19C10 18.4477 9.55228 18 9 18C8.44772 18 8 18.4477 8 19C8 19.5523 8.44772 20 9 20Z" stroke="white" stroke-width="2" stroke-linecap="round" stroke-linejoin="round"/>
<path d="M7 3H3V7H7V3Z" stroke="white" stroke-width="2" stroke-linecap="round" stroke-linejoin="round"/>
<path d="M21 17H17V21H21V17Z" stroke="white" stroke-width="2" stroke-linecap="round" stroke-linejoin="round"/>
<path d="M10 19H17" stroke="white" stroke-width="2" stroke-linecap="round" stroke-linejoin="round"/>
<path d="M8 5H15" stroke="white" stroke-width="2" stroke-linecap="round" stroke-linejoin="round"/>
</svg>

<svg
  width="24"
  height="24"
  viewBox="0 0 24 24"
  xmlns="http://www.w3.org/2000/svg"
  fill="none"
  stroke="currentColor"
  stroke-width="2"
  stroke-linecap="round"
  stroke-linejoin="round"
>
  <path d="M7 5.5c.657 0 1.307.168 1.913.495.634.35 1.187.83 1.623 1.409.464.603.832 1.32 1.083 2.109.252.788.381 1.633.381 2.487 0 1.724.527 3.377 1.464 4.596.938 1.22 2.21 1.904 3.536 1.904" />
  <path d="M15 6a1 1 0 1 0 0-2 1 1 0 0 0 0 2z" />
  <path d="M9 20a1 1 0 1 0 0-2 1 1 0 0 0 0 2z" />
  <path d="M7 3H3v4h4V3z" />
  <path d="M21 17h-4v4h4v-4z" />
  <path d="M10 19h7" />
  <path d="M8 5h7" />
</svg>
